X: 17367
T: High Level, The
R: hornpipe
M: 4/4
K: Gminor
|:(3FGA|BdFB DFBd|fbdf BdcB|ceAc FAcB|AFAc fedc|
BdFB DFBd|(3faf df BdcB|GABc defg|(3agf (3edc B2:|
cB|Afcf Afcf|AFAc fcAc|dfBf dfBf|(3dcB df bfdf|
egAg egAg|eceg bgeg|fefa gbeg|fefg f2cd|
(3ABc fc (3ABc fc|AFAc fcAc|dB (3BAB FB (3BAB|(3dcB df bfdf|
ec (3cBc Gc (3cBc|eceg bgeg|fcaf gbeg|fefg f^fga||
bfdf gecA|BfdB F2BA|GeGe FdFd|Ec (3cBc dcAF|
G^FGA BecA|BfdB F2BA|(3GGG eG (3FFF dF|1 (3EEE cA B2 (3fga:|2 (3EEE cA B2||

